src/assets/images/icons/globe.svg

<svg width="24" height="24" viewBox="0 0 24 24" fill="none" xmlns="http://www.w3.org/2000/svg">
<path d="M22 12C22 17.5228 17.5228 22 12 22M22 12C22 6.47715 17.5228 2 12 2M22 12H2M12 22C6.47715 22 2 17.5228 2 12M12 22C14.5013 19.2616 15.9228 15.708 16 12C15.9228 8.29203 14.5013 4.73835 12 2M12 22C9.49872 19.2616 8.07725 15.708 8 12C8.07725 8.29203 9.49872 4.73835 12 2M2 12C2 6.47715 6.47715 2 12 2" stroke="#181D27" stroke-width="2" stroke-linecap="round" stroke-linejoin="round"/>
</svg>

<svg xmlns="http://www.w3.org/2000/svg" fill="none" viewBox="0 0 24 24"><path stroke="#181D27" stroke-linecap="round" stroke-linejoin="round" stroke-width="2" d="M22 12c0 5.523-4.477 10-10 10m10-10c0-5.523-4.477-10-10-10m10 10H2m10 10C6.477 22 2 17.523 2 12m10 10a15.3 15.3 0 0 0 4-10 15.3 15.3 0 0 0-4-10m0 20a15.3 15.3 0 0 1-4-10 15.3 15.3 0 0 1 4-10M2 12C2 6.477 6.477 2 12 2"/></svg>
